X: 29008
T: Navvy Of Kinlochleven, The
R: reel
M: 4/4
K: Gminor
|:c/c/^c|dBGF DFGB|dcdf gdab|g=e e/e/e c2 cd|=efga gece|
dBGF DFGB|dcdf gdab|g=e e/e/e cded|cBGF G2:|
|:G/G/F|GBde d2 de|dBGF D=EFA|G=E E/E/E CDEC|=EFGA BAGF|
GBde d3 e|dBGF D=EFA|GB B/B/B cBGF|DG-GF G2:|

